material/.icons/material/backburger.svg

<svg xmlns="http://www.w3.org/2000/svg" viewBox="0 0 24 24"><path d="M5 13l4 4-1.4 1.42L1.18 12 7.6 5.58 9 7l-4 4h16v2H5m16-7v2H11V6h10m0 10v2H11v-2h10z"/></svg>

<?xml version="1.0" encoding="UTF-8"?><!DOCTYPE svg PUBLIC "-//W3C//DTD SVG 1.1//EN" "http://www.w3.org/Graphics/SVG/1.1/DTD/svg11.dtd"><svg xmlns="http://www.w3.org/2000/svg" xmlns:xlink="http://www.w3.org/1999/xlink" version="1.1" id="mdi-backburger" width="24" height="24" viewBox="0 0 24 24"><path d="M5,13L9,17L7.6,18.42L1.18,12L7.6,5.58L9,7L5,11H21V13H5M21,6V8H11V6H21M21,16V18H11V16H21Z" /></svg>
